polaris-icons/icons/new-icons/DigitalMediaReceiverMajor.svg

<svg width="20" height="20" viewBox="0 0 20 20" fill="none" xmlns="http://www.w3.org/2000/svg">
<path d="M9.25 4C9.25 3.58579 9.58579 3.25 10 3.25C10.7551 3.25 11.5028 3.39873 12.2004 3.68769C12.8981 3.97666 13.5319 4.4002 14.0659 4.93414C14.5998 5.46807 15.0233 6.10195 15.3123 6.79957C15.6013 7.49719 15.75 8.2449 15.75 9C15.75 9.41421 15.4142 9.75 15 9.75C14.5858 9.75 14.25 9.41421 14.25 9C14.25 8.44188 14.1401 7.88923 13.9265 7.3736C13.7129 6.85796 13.3999 6.38945 13.0052 5.9948C12.6106 5.60015 12.142 5.28709 11.6264 5.07351C11.1108 4.85993 10.5581 4.75 10 4.75C9.58579 4.75 9.25 4.41421 9.25 4Z" fill="#4A4A4A"/>
<path d="M6.75 12.75C6.33579 12.75 6 13.0858 6 13.5C6 13.9142 6.33579 14.25 6.75 14.25H8.75C9.16421 14.25 9.5 13.9142 9.5 13.5C9.5 13.0858 9.16421 12.75 8.75 12.75H6.75Z" fill="#4A4A4A"/>
<path fill-rule="evenodd" clip-rule="evenodd" d="M10 8.25C10.4142 8.25 10.75 8.58579 10.75 9V10.499H14.75C15.7165 10.499 16.5 11.2825 16.5 12.249V14.7498C16.5 15.7163 15.7165 16.4998 14.75 16.4998H5.25C4.2835 16.4998 3.5 15.7163 3.5 14.7498V12.249C3.5 11.2825 4.2835 10.499 5.25 10.499H9.25V9C9.25 8.58579 9.58579 8.25 10 8.25ZM5.25 11.999C5.11193 11.999 5 12.111 5 12.249V14.7498C5 14.8879 5.11193 14.9998 5.25 14.9998H14.75C14.8881 14.9998 15 14.8879 15 14.7498V12.249C15 12.111 14.8881 11.999 14.75 11.999H5.25Z" fill="#4A4A4A"/>
<path d="M10 5.75C9.58579 5.75 9.25 6.08579 9.25 6.5C9.25 6.91421 9.58579 7.25 10 7.25C10.2298 7.25 10.4574 7.29527 10.6697 7.38321C10.882 7.47116 11.0749 7.60006 11.2374 7.76256C11.3999 7.92507 11.5288 8.11798 11.6168 8.3303C11.7047 8.54262 11.75 8.77019 11.75 9C11.75 9.41421 12.0858 9.75 12.5 9.75C12.9142 9.75 13.25 9.41421 13.25 9C13.25 8.5732 13.1659 8.15059 13.0026 7.75628C12.8393 7.36197 12.5999 7.00369 12.2981 6.7019C11.9963 6.40011 11.638 6.16072 11.2437 5.99739C10.8494 5.83406 10.4268 5.75 10 5.75Z" fill="#4A4A4A"/>
</svg>

<svg viewBox="0 0 20 20" xmlns="http://www.w3.org/2000/svg"><path d="M9.25 4a.75.75 0 0 1 .75-.75 5.75 5.75 0 0 1 5.75 5.75.75.75 0 0 1-1.5 0 4.25 4.25 0 0 0-4.25-4.25.75.75 0 0 1-.75-.75Z" fill="#5C5F62"/><path d="M6.75 12.75a.75.75 0 0 0 0 1.5h2a.75.75 0 0 0 0-1.5h-2Z" fill="#5C5F62"/><path fill-rule="evenodd" d="M10 8.25a.75.75 0 0 1 .75.75v1.499h4c.966 0 1.75.784 1.75 1.75v2.5a1.75 1.75 0 0 1-1.75 1.75h-9.5a1.75 1.75 0 0 1-1.75-1.75v-2.5c0-.966.784-1.75 1.75-1.75h4v-1.499a.75.75 0 0 1 .75-.75Zm-4.75 3.749a.25.25 0 0 0-.25.25v2.5c0 .139.112.25.25.25h9.5a.25.25 0 0 0 .25-.25v-2.5a.25.25 0 0 0-.25-.25h-9.5Z" fill="#5C5F62"/><path d="M10 5.75a.75.75 0 0 0 0 1.5 1.75 1.75 0 0 1 1.75 1.75.75.75 0 0 0 1.5 0 3.25 3.25 0 0 0-3.25-3.25Z" fill="#5C5F62"/></svg>
